flaticon/productivity-and-development/browser-4.svg

<svg xmlns="http://www.w3.org/2000/svg" width="32" height="32" viewBox="0 0 24 24">
    <path d="M 3.246094 10.773438 L 16.9375 10.773438 L 16.9375 11.792969 L 3.246094 11.792969 Z M 3.246094 10.773438"/>
    <path d="M 20.601562 12.582031 L 20.601562 0 L 0 0 L 0 20.691406 L 13.527344 20.691406 C 14.429688 22.648438 16.308594 24 18.480469 24 C 21.523438 24 24 21.335938 24 18.0625 C 24 15.597656 22.59375 13.480469 20.601562 12.582031 Z M 19.578125 1.019531 L 19.578125 6.199219 L 1.019531 6.199219 L 1.019531 1.019531 Z M 1.019531 19.667969 L 1.019531 7.21875 L 19.578125 7.21875 L 19.578125 12.246094 C 19.222656 12.167969 18.855469 12.128906 18.480469 12.128906 C 16.378906 12.128906 14.550781 13.390625 13.617188 15.25 L 3.246094 15.25 L 3.246094 16.269531 L 13.214844 16.269531 C 13.046875 16.835938 12.957031 17.4375 12.957031 18.0625 C 12.957031 18.621094 13.027344 19.15625 13.164062 19.667969 Z M 18.480469 22.980469 C 15.996094 22.980469 13.976562 20.773438 13.976562 18.0625 C 13.976562 15.351562 15.996094 13.148438 18.480469 13.148438 C 20.960938 13.148438 22.980469 15.351562 22.980469 18.0625 C 22.980469 20.773438 20.960938 22.980469 18.480469 22.980469 Z M 18.480469 22.980469"/>
    <path d="M 18.988281 15.507812 L 17.96875 15.507812 L 17.96875 17.550781 L 16.117188 17.550781 L 16.117188 18.574219 L 17.96875 18.574219 L 17.96875 20.621094 L 18.988281 20.621094 L 18.988281 18.574219 L 20.839844 18.574219 L 20.839844 17.550781 L 18.988281 17.550781 Z M 18.988281 15.507812"/>
</svg>

<svg xmlns="http://www.w3.org/2000/svg" width="32" height="32" viewBox="0 0 24 24">
    <path d="M3.246 10.773h13.692v1.02H3.245zm0 0"/>
    <path d="M20.602 12.582V0H0v20.691h13.527C14.43 22.648 16.31 24 18.48 24c3.043 0 5.52-2.664 5.52-5.938 0-2.464-1.406-4.582-3.398-5.48zM19.578 1.02V6.2H1.02V1.02zM1.02 19.668V7.218h18.558v5.028a5.108 5.108 0 0 0-1.098-.117c-2.101 0-3.93 1.262-4.863 3.121H3.247v1.02h9.968a6.296 6.296 0 0 0-.258 1.793c0 .558.07 1.093.207 1.605zm17.46 3.312c-2.484 0-4.503-2.207-4.503-4.918 0-2.71 2.02-4.914 4.503-4.914 2.48 0 4.5 2.204 4.5 4.915 0 2.71-2.02 4.917-4.5 4.917zm0 0"/>
    <path d="M18.988 15.508h-1.02v2.043h-1.85v1.023h1.85v2.047h1.02v-2.047h1.852v-1.023h-1.852zm0 0"/>
</svg>
